X: 8008
T: Connaughtman's Rambles, The
R: jig
M: 6/8
K: Dmajor
A|:FAA dAA|BAB dAG|FAA dfe|dBB BAG|
FAA dAA|BAB def|gfe dfe|1 dBB BAG:|2 dBB B2g||
|:fbb faa|fed deg|fbb faa|fed e2 g|
fbb faa|fed def|gfe dfe|dBB B2g:|

